!!!COM: Palestrina, Giovanni Perluigi da
!!!OPR: Missa In duplicibus minoribus (II)
!!!OMD: Gloria
!!!OTL: Tu solus
**kern	**kern	**kern	**kern	**kern
*Ibass	*Itenor	*Itenor	*Icalto	*Icant
!Bassus	!Tenor 2	!Tenor 1	!Altus	!Cantus
*clefF4	*clefGv2	*clefGv2	*clefG2	*clefG2
*k[]	*k[]	*k[]	*k[]	*k[]
*E:phr	*E:phr	*E:phr	*E:phr	*E:phr
*M4/2	*M4/2	*M4/2	*M4/2	*M4/2
=94	=94	=94	=94	=94
0r	1r	0r	1r	1b
.	1A	.	1e	1cc
=95	=95	=95	=95	=95
0r	2.d	0r	1f	1a
.	4c	.	.	.
.	4B	.	1d	1g
.	4A	.	.	.
.	2B	.	.	.
=96	=96	=96	=96	=96
0r	1A	0r	1c	1a
.	2G	.	1d	1b
.	[2G	.	.	.
=97	=97	=97	=97	=97
1r	2G]	1r	1.e	2b
.	2A	.	.	2.a
2r	1E	1B	.	.
.	.	.	.	4g#
2E	.	.	2e	2g#
=98	=98	=98	=98	=98
1A	2r	1c	1e	2a
.	2e	.	.	1a
2D	1d	1A	1f#	.
2D	.	.	.	[2dd
=99	=99	=99	=99	=99
2G	2B	1G	4g	2dd]
.	.	.	4d	.
2E	2G	.	1g	2cc
1D	2.d	1A	.	1dd
.	.	.	2f#	.
.	4d	.	.	.
=100	=100	=100	=100	=100
0G	1d	2.B	0g	1r
.	.	4B	.	.
.	1d	1B	.	1dd
=101	=101	=101	=101	=101
0r	2.e	0r	2.g	2cc
.	.	.	.	2b
.	4d	.	4f	.
.	2c	.	2e	2a
.	2B	.	2d	2g
=102	=102	=102	=102	=102
1D	1A	1d	1f	1a
2.E	2.G	2c	1e	1r
.	.	2B	.	.
4D	4F	.	.	.
=103	=103	=103	=103	=103
2C	2E	2A	1r	2r
2BB	2D	2G	.	1dd
[1AA	1E	1A	[1e	.
.	.	.	.	[2cc
=104	=104	=104	=104	=104
1AA]	2r	1A	2e]	4cc]
.	.	.	.	4b
.	1e	.	2c	4a
.	.	.	.	4g
1A	.	1c	2e	1a
.	4d	.	2f#	.
.	4c	.	.	.
=105	=105	=105	=105	=105
1G	4B	1d	[0g	1b
.	4c	.	.	.
.	2.d	.	.	.
1C	.	1e	.	1cc
.	4c	.	.	.
.	[2c	.	.	.
=106	=106	=106	=106	=106
1G	2c]	1d	1g]	2dd
.	2B	.	.	1g
1C	1G	1c	1e	.
.	.	.	.	[2cc
=107	=107	=107	=107	=107
0GG	1G	0d	1g	2cc]
.	.	.	.	4b
.	.	.	.	4a
.	2r	.	1g	2b
.	2B	.	.	2b
=108	=108	=108	=108	=108
1AA	2c	1c	0e	1a
.	1A	.	.	.
1E	.	1B	.	1b
.	4G#	.	.	.
.	4F#	.	.	.
=109	=109	=109	=109	=109
[0E	1G#	[0B	[0e	[0b
.	[1G#	.	.	.
=110	=110	=110	=110	=110
0E]	0G#]	0B]	0e]	0b]
*-	*-	*-	*-	*-
!!!CDT: 1525/^1526/-1594/2/2
!!!OCY: Italia
!!!AGN: Mass (Paraphrase)
!!!AST: renaissance, vocal
!!!ASW: Gregorian Mass
!!!PWK: Masses, Book Mantuan I
!!!RNB: Cadence finals: A
!!!YOR: Le Opere Complete, v. 18, p. 1
!!!YOO: Rome, Italy: Fratelli Scalera
!!!END: 1992//
!!!EED: John Miller
!!!YEC: Copyright 2000, John Miller
!!!YEN: United States of America
!!!YEM: Rights to all derivative electronic formats reserved.
!!!YEM: Refer to licensing agreement for further details.
!!!YEM: This file must be accompanied by the licensing agreement.
!!!YEM: A copy of the licensing agreement may be found at http://www.music-cog.ohio-state.edu/HumdrumDatabases/Palestrina/license.txt
!!!EMD: converted to Humdrum by Bret Aarden
